X: 3243
T: WATERFORD GIRLS
%R: slip-jig
B: James Kerr "Merry Melodies" v.3 p.27 #243
Z: 2016 John Chambers <jc:trillian.mit.edu>
N: The 2nd strain has initial repeat but no final repeat; fixed.
M: 9/8
L: 1/8
K: D
|:\
vd2vd ud2ue fga | ud2ud vd2vf ecA |\
d2d d2e fga | bag fge d3 ::\
ABA F2G ABc | ded fed e3 |\
ABA F2G ABc | dcd ecA d3 :|

%%sep 1 1 500
%%sep 1 1 500

